X: 11714
T: El Garrotín
R: polka
M: 2/4
K: Dmajor
F|:AA AG/A/|BA/G/ F2-|F3 D|BA/G/ EG|1 D4-|D3 F:|
[2 D2-DE/F/||GG GG|G>F EE/F/|G/A/G/F/ G/A/G/F/|G/A/G/F/ EE/F/|
GG GG|G>F EE|B3 A|G2 EG|:DG/F/ G/E/G/E/|FE GE:|D4|
|:A>d A/A/d/A/|FA/d/ A/A/d/A/|FA/d/ A/G/F/G/|BA FF|G2 EC|
DG/F/ G/E/G/E/|FE GE|DG/E/ G/E/G/E/|FE GE|D4:|

